img/cards-01.svg

<svg width="57" height="99" viewBox="0 0 57 99" fill="none" xmlns="http://www.w3.org/2000/svg">
<g clip-path="url(#clip0_1_689)">
<path d="M51.8776 77.2311V53.4182H0.117188V77.2311C0.117188 87.2325 6.38291 95.7371 15.1686 99.0709C9.92441 101.793 6.38289 107.303 6.38289 113.563V121.999H45.5437V113.563C45.5437 107.235 42.0023 101.793 36.7581 99.0709C45.6119 95.6691 51.8776 87.1645 51.8776 77.2311Z" fill="#FFCC00"/>
<path d="M9.44849 18.7158C15.2375 30.4181 19.4601 42.9369 21.9119 55.7278" stroke="#F2EAE2" stroke-width="2" stroke-miterlimit="10" stroke-linecap="round" stroke-linejoin="round"/>
<path d="M26.6099 54.6409C29.0617 38.244 40.3672 16.9485 43.9769 13.6147" stroke="#F2EAE2" stroke-width="2" stroke-miterlimit="10" stroke-linecap="round" stroke-linejoin="round"/>
<path d="M17.4155 53.0763C14.6232 49.6064 11.899 45.9324 9.44714 42.1904C7.81259 39.7411 3.79435 32.6652 6.99534 31.8488C8.9023 31.3725 11.6265 35.1146 13.4654 37.2917C8.35746 29.8077 3.45382 21.6433 3.24951 12.5944C3.1814 9.26061 4.203 5.58659 7.13156 3.88567C10.8093 1.77653 14.2827 5.3825 15.9853 8.37612C21.1614 17.357 20.0036 23.8885 21.1614 34.2301C21.4338 33.4136 21.57 30.8963 22.864 30.8963C27.0185 30.8963 25.3839 49.0621 24.4305 52.9402" stroke="#F2EAE2" stroke-width="2" stroke-miterlimit="10" stroke-linecap="round" stroke-linejoin="round"/>
<path d="M26.8152 32.0541C28.2454 25.2504 31.855 9.60191 36.4862 9.80602C38.4613 9.87405 38.5294 13.1398 38.3251 14.0243C40.0277 8.30921 44.5227 3.54662 50.1074 1.50551C51.4014 1.02925 52.9679 0.689085 54.1938 1.43749C55.2835 2.11786 55.7602 3.47861 55.624 4.77131C55.5559 6.06401 55.011 7.22063 54.3981 8.37726C52.1506 12.9357 48.1323 18.8549 45.34 23.0732C48.9496 20.5558 50.516 20.0115 52.4911 20.3517C54.0575 20.6239 55.011 22.2568 55.0791 23.8216C55.1472 25.3865 54.4662 26.8833 53.717 28.244C50.7204 33.755 46.7021 38.5856 41.7985 42.5318C43.2287 42.7359 44.9314 41.5112 45.8167 42.5998C46.0211 42.8719 46.0892 43.2802 46.0892 43.6203C46.0892 45.1852 44.9314 46.5459 43.7055 47.5665C40.7088 50.2199 37.3035 52.4651 33.6258 54.03" stroke="#F2EAE2" stroke-width="2" stroke-miterlimit="10" stroke-linecap="round" stroke-linejoin="round"/>
</g>
<defs>
<clipPath id="clip0_1_689">
<rect width="57" height="99" fill="white"/>
</clipPath>
</defs>
</svg>

<svg width="57" height="99" fill="none" xmlns="http://www.w3.org/2000/svg"><g clip-path="url(#a)"><path d="M51.878 77.231V53.418H.118v23.813c0 10.002 6.265 18.506 15.05 21.84a16.334 16.334 0 0 0-8.785 14.492v8.436h39.16v-8.436c0-6.328-3.54-11.77-8.785-14.492 8.854-3.402 15.12-11.906 15.12-21.84Z" fill="#FC0"/><path d="M9.448 18.716a145.499 145.499 0 0 1 12.464 37.012M26.61 54.64c2.452-16.396 13.757-37.692 17.367-41.025" stroke="#F2EAE2" stroke-width="2" stroke-miterlimit="10" stroke-linecap="round" stroke-linejoin="round"/><path d="M17.416 53.076c-2.793-3.47-5.517-7.144-7.969-10.886-1.634-2.449-5.653-9.525-2.452-10.341 1.907-.477 4.631 3.266 6.47 5.443C8.357 29.808 3.454 21.643 3.25 12.594c-.069-3.333.953-7.007 3.882-8.708 3.677-2.11 7.15 1.497 8.853 4.49 5.176 8.981 4.019 15.513 5.176 25.854.273-.816.409-3.334 1.703-3.334 4.154 0 2.52 18.166 1.566 22.044M26.815 32.054c1.43-6.804 5.04-22.452 9.671-22.248 1.975.068 2.043 3.334 1.84 4.218C40.027 8.31 44.522 3.547 50.106 1.506c1.294-.477 2.86-.817 4.087-.069 1.09.68 1.566 2.042 1.43 3.334-.068 1.293-.613 2.45-1.226 3.606-2.247 4.559-6.266 10.478-9.058 14.696 3.61-2.517 5.176-3.061 7.151-2.721 1.566.272 2.52 1.905 2.588 3.47.068 1.565-.613 3.061-1.362 4.422a47.244 47.244 0 0 1-11.919 14.288c1.43.204 3.133-1.02 4.019.068.204.272.272.68.272 1.02 0 1.565-1.158 2.926-2.383 3.947-2.997 2.653-6.403 4.898-10.08 6.463" stroke="#F2EAE2" stroke-width="2" stroke-miterlimit="10" stroke-linecap="round" stroke-linejoin="round"/></g><defs><clipPath id="a"><path fill="#fff" d="M0 0h57v99H0z"/></clipPath></defs></svg>
